X:120
T:score204
L:1/8
Q:1/4=96
M:6/8
I:linebreak $
K:Eb
 G6 | E2 z z2 z | B6 | G2 z z2 B |$ (edf edf | edf edc) | (agb agb | agb agf) |$ %8
!<(! (e'd'f' e'd'f' | e'd'!<)!f'!>(! e'_d'c' |!>)! =bc'_b agf | edf afd) |$ e2 z z3 |] %13
